X: 2
T: The Old Dudeen
R: reel
M: 4/4
L: 1/8
K: Bmin
fe|dB{d}BA ~F3 A|dcde fgfe|dB{d}BA ~F3 A|BdcA B3 c||dB{d}BA ~F3 A|dcde fgfe|dB{d}BA ~F3 A|BdcA B3 g|||fdBc ~d3 f|a2 a^g afe=g|fdBd A/B/A de|fbaf [e3e3] g||fdBc ~d3 e|fbbf a2 fa|b3 f a2 fa|bfaf egfe||


Tune 3168	Setting 16263

